!!!COM:	Agricola, Alexander
!!!CDT:	~1446-1506/08/15
!!!OPR:	Missa Malheur me bat
!!!ONM:	5
!!!OTL:	Agnus Dei
!!!AGN:	Mass; Agnus Dei
!!!SCT:	Agr1004e
!!!SCA:	Agr1004e
!!!voices:	4
!!!voices-OPR:	4
**kern	**kern	**kern	**kern
*staff4	*staff3	*staff2	*staff1
*Ivox	*Ivox	*Ivox	*Ivox
*I"Bassus	*I"Tenor	*I"Altus	*I"Superius
*I'B	*I'T	*I'A	*I'S
*>[A,B,C]	*>[A,B,C]	*>[A,B,C]	*>[A,B,C]
*>A	*>A	*>A	*>A
*clefF4	*clefGv2	*clefGv2	*clefG2
*k[]	*k[]	*k[]	*k[]
*M3/1	*M3/1	*M3/1	*M3/1
*met(O)	*met(O)	*met(O)	*met(O)
!!section: Agnus Dei I
!!!OMD: Agnus Dei I
=1-	=1-	=1-	=1-
0.r	0.r	1E	0.e
.	.	2.E	.
.	.	4F	.
.	.	2G	.
.	.	2A	.
=2	=2	=2	=2
0.r	0.r	2G	2.e
.	.	2.c	.
.	.	.	4f
.	.	.	2g
.	.	4B	.
.	.	4c	2a
.	.	4d	.
.	.	2B	2g
.	.	[2A	[2cc
=3	=3	=3	=3
0.r	0.r	2A]	4cc]
.	.	.	4b
.	.	1e	4cc
.	.	.	4dd
.	.	.	2b
.	.	2f	1a
.	.	2d	.
.	.	[2e	2g
=4	=4	=4	=4
0.r	0.r	2e]	2e
.	.	2.d	1f
.	.	8cL	.
.	.	8BJ	.
.	.	1c	2e
.	.	.	2c
.	.	2B	[2d
=5	=5	=5	=5
0.r	0.r	2G	2d]
.	.	1A	2c
.	.	.	2A
.	.	2G	1B
.	.	2E	.
.	.	2F	2A
=6	=6	=6	=6
0.r	0.r	4D	4B
.	.	4E	2c
.	.	2F	.
.	.	.	4d
.	.	4G	2e
.	.	2A	.
.	.	.	4f
.	.	4B	2g
.	.	2c	.
.	.	.	4a
.	.	2d	4b
.	.	.	8aL
.	.	.	8bJ
=7	=7	=7	=7
0.r	0.r	4c	2cc
.	.	4B	.
.	.	2G	4b
.	.	.	2g
.	.	4r	.
.	.	4c	4a
.	.	4d	2b
.	.	2e	.
.	.	.	4g
.	.	4c	2e
.	.	2A	.
.	.	.	4f
=8	=8	=8	=8
0.r	0.r	4B	2g
.	.	2c	.
.	.	.	4e
.	.	4A	2c
.	.	2F	.
.	.	.	4d
.	.	4G	2e
.	.	2A	.
.	.	.	4c
.	.	4F	2A
.	.	2D	.
.	.	.	4B
=9	=9	=9	=9
0.r	1r	4E	4.c
.	.	4F	.
.	.	.	8d
.	.	4G	2B
.	.	4E	.
.	1r	4.F	4A
.	.	.	2d
.	.	8G	.
.	.	2E	.
.	.	.	4c
.	2r	4D	4d
.	.	2G	8cL
.	.	.	8BJ
.	2D	.	2A
.	.	4F	.
=10	=10	=10	=10
0.r	2E	2G	4G
.	.	.	2g
.	2D	2A	.
.	.	.	4f
.	4E	4G	4g
.	4C	2c	8fL
.	.	.	8eJ
.	2G	.	2d
.	.	4B	.
.	2A	2c	4c
.	.	.	2cc
.	2G	2d	.
.	.	.	4b
=11	=11	=11	=11
0.r	2A	2c	4cc
.	.	.	8bL
.	.	.	8aJ
.	4E	4r	2g
.	2G	2E	.
.	.	.	4e
.	2A	4D	2f
.	.	2E	.
.	8GL	.	2e
.	8FJ	.	.
.	2G	4r	.
.	.	4B	4d
.	4C	4c	2e
.	4c	8BL	.
.	.	8AJ	.
=12	=12	=12	=12
*M2/1	*M2/1	*M2/1	*M2/1
*met()	*met()	*met()	*met()
!!This should be a silent measure of 2/1 (i.e., we remain in MenCircle)
0r	4B	4G	4b
.	2e	2A	2cc
.	4E	4G	4.b
.	4F	4c	.
.	.	.	8a
.	4D	4d	2a
.	2E	2B	.
.	.	.	4g#i
=13	=13	=13	=13
*M3/1	*M3/1	*M3/1	*M3/1
*met()	*met()	*met()	*met()
0.AA	1.E	1A	1a
.	.	1c	2r
.	2C	.	1e
.	[1C	2.c	.
.	.	.	[2c
.	.	8BL	.
.	.	8AJ	.
=14	=14	=14	=14
0.E	1C]	1.G	4c]
.	.	.	4d
.	.	.	4e
.	.	.	4f
.	1C	.	2.g
.	.	2c	.
.	.	.	4a
.	1r	2B	2b
.	.	2e	[2cc
=15	=15	=15	=15
0.F	2r	2c	4cc]
.	.	.	4b
.	2D	4d	4a
.	.	2f	4g
.	0D	.	1a
.	.	4e	.
.	.	4d	.
.	.	8cL	.
.	.	8BJ	.
.	.	2A	1a
.	.	2d	.
=16	=16	=16	=16
0E	2E	4B	1g
.	.	4G	.
.	2.C	2.c	.
.	.	.	1r
.	4D	4B	.
.	4E	2G	.
.	4F	.	.
1C	2G	4r	1e
.	.	4.c	.
.	[2A	.	.
.	.	8BL	.
.	.	8A	.
.	.	8GJ	.
=17	=17	=17	=17
0D	4A]	2.F	0f
.	4G	.	.
.	4F	.	.
.	4E	4G	.
.	1F	2.A	.
.	.	4B	.
1C	2G	1c	1e
.	2E	.	.
=18	=18	=18	=18
1AA	1E	2.c	1c
.	.	8BL	.
.	.	8AJ	.
0BB	1D	2G	0d
.	.	2F	.
.	2.D	2.G	.
.	8CL	8FL	.
.	8DJ	8GJ	.
=19	=19	=19	=19
0.AA	2.E	1A	0.c
.	4F	.	.
.	4E	1A	.
.	2F	.	.
.	8EL	.	.
.	8DJ	.	.
.	2C	2.A	.
.	2F	.	.
.	.	4B	.
=20	=20	=20	=20
2.AA	2E	1.c	2r
.	2A	.	2f
4BB	.	.	.
2C	2G	.	2e
2.D	4F	4.A	2.f
.	2A	.	.
.	.	8G	.
.	.	4F	.
4C	4B	8EL	4g
.	.	8DJ	.
2AA	2c	2E	2a
=21	=21	=21	=21
2BB-i	4B-	2D	4g
.	4A	.	2f
2C	2G	2r	.
.	.	.	4e
2D	2F	2.A	2f
2AA	2.E	.	2a
.	.	4.c	.
4C	.	.	4g
.	.	8B	.
4D	4F	2A	2f
2BBni	2D	.	.
.	.	4G#i	8eL
.	.	.	8dJ
=22	=22	=22	=22
0AA	2E	1.A	2c
.	2F	.	2c
.	4E	.	4e
.	2A	.	4f
.	.	2.c	4e
.	2A	.	2f
1AA	.	.	.
.	4G	4B	8eL
.	.	.	8dJ
.	[2E	2A	2c
=23	=23	=23	=23
0.r	2E]	4.G	4r
.	.	.	2g
.	.	8A	.
.	1E	4B	.
.	.	4c	4a
.	.	4B	4b
.	.	2e	4cc
.	1E	.	4b
.	.	2e	2cc
.	.	8dL	8bL
.	.	8cJ	8aJ
.	2E	4B	2g
.	.	8AL	.
.	.	[8cJ	.
=24	=24	=24	=24
0.r	1F	8cL]	2a
.	.	8B	.
.	.	8A	.
.	.	8GJ	.
.	.	2A	2cc
.	2G	2G	2b
.	4r	4.A	2.a
.	4.F	.	.
.	.	8B	.
.	.	4c	.
.	8EL	.	.
.	8D	2c	4g
.	8CJ	.	.
.	2D	.	2f
.	.	4B	.
=25	=25	=25	=25
0.r	2C	2c	2e
.	2D	1A	2.f
.	1AA	.	.
.	.	.	4e
.	.	2.A	2c#
.	1BB	.	1d
.	.	8GL	.
.	.	8FJ	.
.	.	2G	.
=26	=26	=26	=26
[0.AAl	2AA	[0.Al	[0.c#il
.	2.E	.	.
.	4D	.	.
.	2E	.	.
.	2F	.	.
.	2E	.	.
=27	=27	=27	=27
0.AA]	0.El	0.A]	0.c#]
!!LO:LB:i:g=z
=28||	=28||	=28||	=28||
*>B	*>B	*>B	*>B
*clefF4	*clefGv2	*clefGv2	*clefG2
*k[]	*k[]	*k[]	*k[]
*M2/1	*M2/1	*M2/1	*M2/1
*met(C|)	*met(C|)	*met(C|)	*met(C|)
!!section: Agnus Dei II
!!!OMD: Agnus Dei II
1E	0r	[0E	0r
[1G	.	.	.
=29	=29	=29	=29
2G]	0r	0E_	0r
2E	.	.	.
2.G	.	.	.
4A	.	.	.
=30	=30	=30	=30
2B	0r	0E_	0r
2c	.	.	.
2B	.	.	.
2G	.	.	.
=31	=31	=31	=31
0r	0r	0E_	1e
.	.	.	[1g
=32	=32	=32	=32
0r	0r	0E_	2g]
.	.	.	2e
.	.	.	2.g
.	.	.	4a
=33	=33	=33	=33
0r	0r	0E]	2b
.	.	.	2cc
.	.	.	2b
.	.	.	[2g
=34	=34	=34	=34
1r	0r	0B	2g]
.	.	.	4f
.	.	.	4e
1G	.	.	1d
=35	=35	=35	=35
2.C	0r	[0c	1e
4D	.	.	.
2E	.	.	1r
2F	.	.	.
=36	=36	=36	=36
2E	0r	0c]	0r
2C	.	.	.
2E	.	.	.
2F	.	.	.
=37	=37	=37	=37
1G	0r	[0B	0r
2r	.	.	.
[2GG	.	.	.
=38	=38	=38	=38
4GG]	0r	0B]	0r
4AA	.	.	.
4BB	.	.	.
4C	.	.	.
2D	.	.	.
2E	.	.	.
=39	=39	=39	=39
1F	0r	[0A	2.c
.	.	.	4d
1r	.	.	2e
.	.	.	2f
=40	=40	=40	=40
0r	0r	0A]	2e
.	.	.	2c
.	.	.	2e
.	.	.	2f
=41	=41	=41	=41
2.E	0r	[0G	2.g
4F	.	.	4a
2G	.	.	2b
[2C	.	.	[2e
=42	=42	=42	=42
4C]	0r	0G]	4e]
4D	.	.	4f
4E	.	.	2g
4F	.	.	.
2G	.	.	2d
[2C	.	.	[2e
=43	=43	=43	=43
4C]	0r	[0E	2e]
4D	.	.	.
4E	.	.	4d
4F	.	.	4c
2G	.	.	2B
[2B	.	.	2G
=44	=44	=44	=44
2B]	0r	0E]	1c
1A	.	.	.
.	.	.	1B
2G	.	.	.
=45	=45	=45	=45
2.A	0r	2.F	2A
.	.	.	2c
4G	.	4E	.
2F	.	2D	2d
2E	.	2C	2e
=46	=46	=46	=46
2D	0r	2D	2f
2C	.	2E	2g
2c	.	1F	2a
2A	.	.	[2cc
=47	=47	=47	=47
2B	0r	1E	4cc]
.	.	.	4b
2G	.	.	1b
2E	.	1c	.
2F	.	.	2a
=48	=48	=48	=48
2G	0r	2B	2b
2.F	.	2c	2.a
.	.	2d	.
4E	.	.	4e
2C	.	[2e	2g
=49	=49	=49	=49
2AA	0r	2e]	1f
2BB	.	2d	.
2C	.	2e	2e
[2BB-	.	2f	2d
=50	=50	=50	=50
4BB-]	0r	2.d	2.f
4AA	.	.	.
2FF	.	.	.
.	.	4c	4e
2GG	.	4B	2d
.	.	4A	.
2AA	.	[2A	2c
=51	=51	=51	=51
1BB-i	0r	2A]	2.d
.	.	2G	.
.	.	.	4e
2.AA	.	1A	2f
.	.	.	[2e
4BBni	.	.	.
=52	=52	=52	=52
2C	0r	2G	4e]
.	.	.	4d
2D	.	2F	1d
1AA	.	1E	.
.	.	.	2c
=53	=53	=53	=53
[0GG	0r	0B	[0d
=54	=54	=54	=54
1GG]	0r	1B	1d]
1D	.	[1A	[1f
=55	=55	=55	=55
1r	0r	2A]	2f]
.	.	2G	2e
1C	.	[1c	[1e
=56	=56	=56	=56
0G	0r	1c]	1e]
.	.	1B	1d
=57	=57	=57	=57
1C	0r	1c	0e
2G	.	2B	.
2A	.	2c	.
=58	=58	=58	=58
2G	0r	2B	0r
2E	.	1e	.
1F	.	.	.
.	.	2d	.
=59	=59	=59	=59
1E	0r	1e	0r
[1G	.	2d	.
.	.	[2B	.
=60	=60	=60	=60
2G]	0r	2B]	0r
1A	.	1c	.
4G	.	4B	.
4F	.	4A	.
=61	=61	=61	=61
1.E	0r	2c	1.g
.	.	2B	.
.	.	1r	.
[2F	.	.	[2a
=62	=62	=62	=62
2F]	0r	1r	2a]
4E	.	.	4g
4D	.	.	4f
1C	.	[1G	[1e
=63	=63	=63	=63
0r	0r	2G]	2e]
.	.	2.A	2.f
.	.	4G	4e
.	.	2E	2c
=64	=64	=64	=64
1r	0r	1F	1d
2.C	.	2E	2.e
.	.	2A	.
4D	.	.	4f
=65	=65	=65	=65
2E	0r	2G	2g
2F	.	2c	2a
2G	.	2B	2g
2C	.	2e	2cc
=66	=66	=66	=66
2G	0r	4d	2b
.	.	4e	.
2F	.	4f	2a
.	.	8eL	.
.	.	8fJ	.
2E	.	2g	2b
2D	.	[2f	[2dd
=67	=67	=67	=67
1A	0r	4f]	4dd]
.	.	4e	4cc
.	.	4d	1cc
.	.	4c	.
1G	.	1d	.
.	.	.	2b
=68	=68	=68	=68
1A	0r	1c	1cc
2G	.	1B	2r
2E	.	.	2g
=69	=69	=69	=69
1F	0r	2A	1a
.	.	1f	.
1C	.	.	1g
.	.	[2e	.
=70	=70	=70	=70
1r	0r	2e]	1f
.	.	2d	.
2r	.	1r	1e
[2c	.	.	.
=71	=71	=71	=71
2c]	0r	0r	1d
1B	.	.	.
.	.	.	1c
[2A	.	.	.
=72	=72	=72	=72
2A]	0r	0r	1B
2G	.	.	.
2A	.	.	[1A
[2c	.	.	.
=73	=73	=73	=73
2c]	0r	2r	1A]
4B	.	1e	.
4A	.	.	.
2.G	.	.	1r
.	.	[2d	.
4A	.	.	.
=74	=74	=74	=74
2B	0r	2d]	2r
2c	.	2.c	2e
1G	.	.	2d
.	.	4B	.
.	.	[2B	2B
=75	=75	=75	=75
0r	0r	2B]	1c
.	.	2A	.
.	.	2G	2B
.	.	2E	[2e
=76	=76	=76	=76
1r	0r	1F	2e]
.	.	.	2d
2r	.	2E	1e
2A	.	2c	.
=77	=77	=77	=77
2G	0r	2B	1r
2E	.	1e	.
1F	.	.	2r
.	.	2d	2a
=78	=78	=78	=78
1E	0r	1e	2g
.	.	.	2e
2r	.	1r	1f
[2A	.	.	.
=79	=79	=79	=79
2A]	0r	0r	1e
2G	.	.	.
2A	.	.	2r
2c	.	.	[2a
=80	=80	=80	=80
1B	0r	1r	2a]
.	.	.	2g
1A	.	2r	2a
.	.	[2A	2cc
=81	=81	=81	=81
1E	0r	2A]	1b
.	.	2G	.
1F	.	2A	1a
.	.	2c	.
=82	=82	=82	=82
1G	0r	1B	1dd
1r	.	1A	1cc
=83	=83	=83	=83
2r	0r	1d	2b
2D	.	.	2.a
1E	.	1G	.
.	.	.	4g
.	.	.	[2g
=84	=84	=84	=84
1D	0r	1A	2g]
.	.	.	2f
1E	.	1G	[1g
=85	=85	=85	=85
1C	0r	2r	2g]
.	.	1c	4f
.	.	.	4e
1D	.	.	1f
.	.	2B	.
=86	=86	=86	=86
1C	0r	2.c	1e
.	.	4d	.
1r	.	4e	1c
.	.	4f	.
.	.	[2e	.
=87	=87	=87	=87
0r	0r	4e]	2.c
.	.	4d	.
.	.	4c	.
.	.	4B	4d
.	.	2c	2e
.	.	2d	2f
=88	=88	=88	=88
1r	0r	2c	2e
.	.	2d	2f
2r	.	2c	2e
2AA	.	[2A	[2f
=89	=89	=89	=89
1BB	0r	2A]	2f]
.	.	1d	4e
.	.	.	4d
1AA	.	.	1e
.	.	2c	.
=90	=90	=90	=90
1BB	0r	2d	1d
.	.	2D	.
1GG	.	2E	1r
.	.	[2G	.
=91	=91	=91	=91
1AA	0r	4G]	2r
.	.	4F#i	.
.	.	4F#i	2a
.	.	4E	.
1GG	.	1G	1b
=92	=92	=92	=92
0r	0r	2F	1a
.	.	1D	.
.	.	.	1b
.	.	[2E	.
=93	=93	=93	=93
0r	0r	4E]	1g
.	.	4D	.
.	.	2E	.
.	.	1F	1a
=94	=94	=94	=94
1r	0r	1E	2g
.	.	.	2.cc
2r	.	1C	.
.	.	.	4b
2E	.	.	2g
=95	=95	=95	=95
1F	0r	0r	2a
.	.	.	2f
1E	.	.	2g
.	.	.	2b
=96	=96	=96	=96
1F	0r	0r	2a
.	.	.	2cc
1D	.	.	2b
.	.	.	[2a
=97	=97	=97	=97
1E	0r	2r	2a]
.	.	2G	1g
1D	.	1A	.
.	.	.	2f
=98	=98	=98	=98
0r	0r	1G	2g
.	.	.	1e
.	.	1A	.
.	.	.	[2c
=99	=99	=99	=99
0r	0r	1F	2c]
.	.	.	1f
.	.	1G	.
.	.	.	2e
=100	=100	=100	=100
1r	0r	1F	2f
.	.	.	2.a
2r	.	1c	.
.	.	.	4b
2F	.	.	4cc
.	.	.	4dd
=101	=101	=101	=101
1G	0r	0r	2b
.	.	.	2g
1F	.	.	2a
.	.	.	[2dd
=102	=102	=102	=102
1G	0r	2r	4dd]
.	.	.	4cc
.	.	2d	4b
.	.	.	4a
1E	.	1e	1g
=103	=103	=103	=103
1F	0r	1d	2a
.	.	.	2dd
1E	.	2.e	2cc
.	.	.	[2b
.	.	4d	.
=104	=104	=104	=104
1F	0r	2c	4b]
.	.	.	4a
.	.	4B	1a
.	.	4A	.
1E	.	1B	.
.	.	.	2g#i
=105	=105	=105	=105
0AAl	0r	0Al	0al
!!LO:LB:i:g=z
=106||	=106||	=106||	=106||
*>C	*>C	*>C	*>C
*clefF4	*clefGv2	*clefGv2	*clefG2
*k[b-]	*k[]	*k[]	*k[]
*M2/1	*M2/1	*M2/1	*M2/1
*met(C|)	*met(C|)	*met(C|)	*met(C|)
!!section: Agnus Dei III
!!!OMD: Agnus Dei III
0AA	0A	[0e	0a
=107	=107	=107	=107
1E	1B	0e]	1g
1E	1G	.	[1b
=108	=108	=108	=108
1F	0A	0d	2b]
.	.	.	2a
1F	.	.	[1a
=109	=109	=109	=109
1E	1B	0e	2a]
.	.	.	2g
1C	1c	.	[1g
=110	=110	=110	=110
0D	1.A	0d	2g]
.	.	.	4f
.	.	.	4e
.	.	.	1f
.	2B	.	.
=111	=111	=111	=111
1.C	0c	1.e	1g
.	.	.	1e
4BB-	.	4d	.
4AA	.	4c	.
=112	=112	=112	=112
1BB-	1r	4d	0d
.	.	4c	.
.	.	4B-i	.
.	.	4A	.
1BB-	2.d	1G	.
.	4e	.	.
=113	=113	=113	=113
2.AA	2f	2A	1c
.	1e	1c	.
4BB-	.	.	.
2C	.	.	1r
[2D	2d	2A	.
=114	=114	=114	=114
4D]	2B	2d	0r
4C	.	.	.
2AA	2c	2e	.
2BB-	2d	2d	.
2C	4c	[2G	.
.	8BL	.	.
.	8AJ	.	.
=115	=115	=115	=115
2D	2B	4G]	0r
.	.	4F	.
2AA	1A	1E	.
1BB-	.	.	.
.	2G	2D	.
=116	=116	=116	=116
0AA	0A	2E	[0c
.	.	2F	.
.	.	2E	.
.	.	[2A	.
=117	=117	=117	=117
1r	0AA	2A]	0c]
.	.	4G	.
.	.	4F	.
1A	.	1E	.
=118	=118	=118	=118
1F	1A	2D	1f
.	.	2.d	.
2G	2B	.	1e
.	.	4c	.
[2A	2c	2A	.
=119	=119	=119	=119
2A]	1A	2c	1f
2D	.	2d	.
1E	1G	1B	1g
=120	=120	=120	=120
1F	2F	1A	1a
.	2D	.	.
2E	[1G	2r	2b
[2C	.	[2e	[2cc
=121	=121	=121	=121
2C]	1G]	2e]	2cc]
2D	.	4d	4b
.	.	4c	4a
1E	1G	1B	1g
=122	=122	=122	=122
2AA	2r	1A	1a
1A	1c	.	.
.	.	1r	1e
4G	4B	.	.
4F	4A	.	.
=123	=123	=123	=123
4G	4B	1r	1r
4F	4A	.	.
4E	4G	.	.
4D	4F	.	.
2.C	2.E	1c	[1g
4D	4F	.	.
=124	=124	=124	=124
2E	2G	2B	2g]
2F	2D	2A	2a
2E	2E	2e	2g
[2A	2F	[2d	[2f
=125	=125	=125	=125
4A]	1C	4d]	4f]
4G	.	4c	4e
2E	.	1c	1e
1F	1D	.	.
.	.	2B	2d
=126	=126	=126	=126
2E	1C	2.c	2e
2.A	.	.	2.cc
.	.	4d	.
.	1r	2e	.
4G	.	.	4b
2B-	.	2d	[2dd
=127	=127	=127	=127
2A	0r	2e	4dd]
.	.	.	4cc
2F	.	2f	1cc
1G	.	2.d	.
.	.	.	2b
.	.	4c	.
=128	=128	=128	=128
2r	0r	2A	1cc
1F	.	2F	.
.	.	2.G	1r
2E	.	.	.
.	.	4F	.
=129	=129	=129	=129
2F	2.A	1D	1.f
1D	.	.	.
.	4G	.	.
.	4A	1r	.
.	4B	.	.
2C	[2c	.	[2e
=130	=130	=130	=130
2D	4c]	0r	4e]
.	4B	.	4d
2F	1A	.	1d
1E	.	.	.
.	2G	.	2c
=131	=131	=131	=131
2D	2F	0r	2d
1A	2D	.	2f
.	1C	.	1e
2G	.	.	.
=132	=132	=132	=132
2F	2D	1r	2d
1A	2AA	.	2c
.	1E	[1e	1B
2G#i	.	.	.
=133	=133	=133	=133
1.A	0AA	2e]	0A
.	.	1c	.
4G	.	4B	.
4F	.	4A	.
=134	=134	=134	=134
2E	1r	2G	1c
2F	.	2A	.
2E	1AA	2G	2.c
[2C	.	[2c	.
.	.	.	4d
=135	=135	=135	=135
4C]	0AA	2c]	0e
4D	.	.	.
2E	.	1c	.
2AA	.	.	.
[2A	.	[2c	.
=136	=136	=136	=136
2A]	0AA	4c]	1e
.	.	4A	.
4G	.	1d	.
4F	.	.	.
1E	.	.	1e
.	.	2c#i	.
=137	=137	=137	=137
2D	1.A	1d	1f
1F	.	.	.
.	.	1d	1f
2G	2B	.	.
=138	=138	=138	=138
2.A	1c	2c	2.e
.	.	2A	.
4G	.	.	4f
2E	2B	2G	2g
[2F	2A	2F	[2a
=139	=139	=139	=139
2F]	2c	2A	2a]
4E	2d	2F	1a
4D	.	.	.
1E	1B	1G	.
.	.	.	2g
=140	=140	=140	=140
1AA	0A	2E	1.a
.	.	1F	.
1AA	.	.	.
.	.	4E	4g
.	.	4D	4f
=141	=141	=141	=141
1AA	2r	1C	1e
.	1A	.	.
1BB-	.	1D	2r
.	2G	.	[2d
=142	=142	=142	=142
1AA	1A	1E	2d]
.	.	.	2c
2r	2B	1D	1d
[2D	2A	.	.
=143	=143	=143	=143
2D]	2B	1G	1e
2C	2c	.	.
1D	1A	2F	1f
.	.	2D	.
=144	=144	=144	=144
1E	1r	1C	2e
.	.	.	2c
1F	2d	1r	2d
.	4c	.	[2a
.	8BL	.	.
.	8AJ	.	.
=145	=145	=145	=145
2E	2B	1e	4a]
.	.	.	4g
2C	2c	.	1g
1D	2.A	1d	.
.	.	.	2f
.	8GL	.	.
.	8FJ	.	.
=146	=146	=146	=146
2C	2E	1e	2g
1C	2C	.	2e
.	1D	2r	1f
2BB-	.	[2d	.
=147	=147	=147	=147
1C	2G	4d]	1e
.	.	4c	.
.	1G	1c	.
1D	.	.	1f
.	2F	2B	.
=148	=148	=148	=148
1.C	1G	1c	2.e
.	.	.	4f
.	[1c	2.c	2g
[2F	.	.	[2a
.	.	4B	.
=149	=149	=149	=149
2F]	2c]	2A	2a]
2G	2B	2G	2b
[1A	2A	2.F	[1cc
.	[2c	.	.
.	.	4G	.
=150	=150	=150	=150
2A]	2c]	2A	2cc]
1B-	4B-i	1G	1dd
.	4A	.	.
.	1G	.	.
4A	.	[2d	4cc
4G	.	.	4b
=151	=151	=151	=151
1.F	2.D	2d]	2.a
.	.	4c	.
.	4E	4B	4g
.	2F	2A	2a
[2G	2E	2G	[2b
=152	=152	=152	=152
4G]	2C	2c	4b]
4F	.	.	4a
2D	2F	2d	1a
1E	2.G	1B	.
.	.	.	2g
.	4F	.	.
=153	=153	=153	=153
0F	0D	2A	1a
.	.	2.f	.
.	.	.	1f
.	.	4e	.
.	.	[2d	.
=154	=154	=154	=154
1r	1E	2d]	1g
.	.	2c	.
1F	1D	1d	2a
.	.	.	4g
.	.	.	4f
=155	=155	=155	=155
1G	2C	1r	2e
.	2BB-	.	2d
1A	1AA	1e	1c
=156	=156	=156	=156
2.F	2.D	2.f	0r
4G	4E	4e	.
2A	2F	2c	.
[2B-	[2BB-i	[2d	.
=157	=157	=157	=157
4B-]	4BB-]	4d]	0r
4A	4C	4c	.
4G	2D	1f	.
4F	.	.	.
1G	1C	.	.
.	.	2e	.
=158	=158	=158	=158
2F	2F	2f	0r
1F	2D	2F	.
.	1C	1G	.
2E	.	.	.
=159	=159	=159	=159
1F	2F	2A	1f
.	2A	2c	.
1r	2B	2B	2g
.	[2c	[2A	[2a
=160	=160	=160	=160
1F	2c]	4A]	2a]
.	.	4B	.
.	4B	4c	4g
.	4A	4d	4f
2G	2G	2B	2e
[2A	2F	2A	[2f
=161	=161	=161	=161
2A]	1D	1F	2f]
4G	.	.	4e
4F	.	.	4d
2E	1r	2G	2c
[2F	.	[2A	[2d
=162	=162	=162	=162
2F]	1D	2A]	4d]
.	.	.	4e
4E	.	4G	2f
4D	.	4F	.
2C	2E	2G	2e
[2D	[2F	2F	2d
=163	=163	=163	=163
4D]	4F]	2A	2f
4C	4E	.	.
2AA	2C	1A	2e
1BB-	1D	.	1d
.	.	2G	.
=164	=164	=164	=164
0AA	2E	2.A	2.c
.	2F	.	.
.	.	4B	4d
.	2E	1c	2e
.	2A	.	2f
=165	=165	=165	=165
0r	4G	2B	2e
.	4E	.	.
.	2F	2A	2a
.	2E	2B	2g
.	[2A	[2c	[2f
=166	=166	=166	=166
0r	4A]	4c]	4f]
.	4G	4B	4e
.	4F	4A	1e
.	4E	4G	.
.	1F	2.A	.
.	.	.	2d
.	.	4B	.
=167	=167	=167	=167
1AA	[0El	1.c	[0el
[1C	.	.	.
.	.	4B	.
.	.	4A	.
=168	=168	=168	=168
2C]	0E_	1G	0e_
2BB-	.	.	.
2AA	.	2c	.
2GG	.	2B	.
=169	=169	=169	=169
1.AA	0E_	2A	0e_
.	.	1c	.
4GG	.	4B	.
4FF	.	4A	.
=170	=170	=170	=170
0EEl	0E]	0Bl	0e]
==	==	==	==
*-	*-	*-	*-
!!!RDF**kern: l=long note in original notation
!!!RDF**kern: i=editorial accidental
!!!RDF**kern: V=start of tuplet marker
!!!RDF**kern: Z=end of tuplet marker
!!!ENC:	Jesse Rodin; Megan K. Eagen 2013/04/23
!!!END:	2013/04/23/
!!!EED:	Jesse Rodin
!!!EEV:	2013/05/08/
!!!ONB:	Translated from MusicXML and edited on 2013/05/08/ by Craig Sapp
!!muse2ps: T^@{OPR}^u^@{ONM}{. }@{OTL}^C^@{COM}^i2I100v85,90,85,150c85Q16
